assets/ai/ai-ciencia-vitae-square.svg

<svg xmlns="http://www.w3.org/2000/svg" width="100%" height="100%" viewBox="-75.52 -43.52 599.04 599.04"><path d="M 48 32 C 21.5 32 0 53.5 0 80 L 0 432 C 0 458.5 21.5 480 48 480 L 400 480 C 426.5 480 448 458.5 448 432 L 448 80 C 448 53.5 426.5 32 400 32 L 48 32 z M 142.10156 177.88477 L 167.29883 203.08203 L 114.39453 256 L 166.67188 308.91797 L 142.10156 334.11523 L 64 256 L 142.10156 177.88477 z M 305.25781 184.18555 A 23.307631 23.307631 0 0 1 328.57227 207.48828 A 23.307631 23.307631 0 0 1 305.25781 230.80273 A 23.307631 23.307631 0 0 1 281.95508 207.48828 A 23.307631 23.307631 0 0 1 305.25781 184.18555 z M 252.98047 224.50391 L 305.88477 277.41992 L 358.80273 224.50391 L 384 249.70117 L 305.88477 327.81445 L 228.41016 249.70117 L 252.98047 224.50391 z M 184.31445 232.05664 A 23.307631 23.307631 0 0 1 207.61719 255.37305 A 23.307631 23.307631 0 0 1 184.31445 278.67578 A 23.307631 23.307631 0 0 1 161 255.37305 A 23.307631 23.307631 0 0 1 184.31445 232.05664 z"/></svg>

<svg xmlns="http://www.w3.org/2000/svg" width="100%" height="100%" viewBox="-75.52 -43.52 599.04 599.04"><path d="M48 32C21.5 32 0 53.5 0 80v352c0 26.5 21.5 48 48 48h352c26.5 0 48-21.5 48-48V80c0-26.5-21.5-48-48-48H48zm94.102 145.885l25.197 25.197L114.395 256l52.277 52.918-24.57 25.197L64 256l78.102-78.115zm163.156 6.3a23.308 23.308 0 0123.314 23.303 23.308 23.308 0 01-23.314 23.315 23.308 23.308 0 01-23.303-23.315 23.308 23.308 0 0123.303-23.302zm-52.278 40.319l52.905 52.916 52.918-52.916L384 249.7l-78.115 78.113-77.475-78.113 24.57-25.197zm-68.666 7.553a23.308 23.308 0 0123.303 23.316 23.308 23.308 0 01-23.303 23.303A23.308 23.308 0 01161 255.373a23.308 23.308 0 0123.314-23.316z"/></svg>
